X: 4130
T: Blue Bike, The
R: reel
M: 4/4
K: Gmajor
dc|:B3G AGFE|DFAF GBdB|cegc Bdgb|agfe dcBA|
B2GB AFGE|DFAF GBdB|cegc B2GB|AGFG AGG2:|
|:Begf eBBA|Begf eB~B2|cegc Bdgb|agfe dcBA|
Begf eB~B2|eBgB eB~B2|cegc Bdgb|agfg e2dc:|

